storage/app/icons/phosphoricons/fill/ambulance-fill.svg

<svg xmlns="http://www.w3.org/2000/svg" fill="currentColor" viewBox="0 0 256 256"><path d="m255.43 117-14-35a15.93 15.93 0 0 0-14.85-10H192v-8a8 8 0 0 0-8-8H32a16 16 0 0 0-16 16v112a16 16 0 0 0 16 16h17a32 32 0 0 0 62 0h50a32 32 0 0 0 62 0h17a16 16 0 0 0 16-16v-64a7.9 7.9 0 0 0-.57-3M80 208a16 16 0 1 1 16-16 16 16 0 0 1-16 16m56-80h-16v16a8 8 0 0 1-16 0v-16H88a8 8 0 0 1 0-16h16V96a8 8 0 0 1 16 0v16h16a8 8 0 0 1 0 16m56 80a16 16 0 1 1 16-16 16 16 0 0 1-16 16m0-96V88h34.58l9.6 24Z"/></svg>

<svg xmlns="http://www.w3.org/2000/svg" viewBox="0 0 256 256" fill="currentColor"><path d="M255.43,117l-14-35A15.93,15.93,0,0,0,226.58,72H192V64a8,8,0,0,0-8-8H32A16,16,0,0,0,16,72V184a16,16,0,0,0,16,16H49a32,32,0,0,0,62,0h50a32,32,0,0,0,62,0h17a16,16,0,0,0,16-16V120A7.92,7.92,0,0,0,255.43,117ZM80,208a16,16,0,1,1,16-16A16,16,0,0,1,80,208Zm56-80H120v16a8,8,0,0,1-16,0V128H88a8,8,0,0,1,0-16h16V96a8,8,0,0,1,16,0v16h16a8,8,0,0,1,0,16Zm56,80a16,16,0,1,1,16-16A16,16,0,0,1,192,208Zm0-96V88h34.58l9.6,24Z"/></svg>
